FINK
CUT[NOCH NICHT ENTBLUEHT ZUR ROSE]
REG[Europa, Mitteleuropa, Deutschland]
KEY[F0868  16  F 4/4]
MEL[3_.4  5__5__5_+1_7_6_  5__.4_2_0_
    2_1_  -7_2_4_3_2_4_6_5_  4__3__0__
    5__  -7__5__3__5__  2___0__
    2_.3  4__4__4__4__  4__.3_2__0_
    2_  3_4_5_6_7b__.-7b_  -6__-6__0__
    (6_4_2_)  5___54#654342  1__0___ //] >>
FCT[Liebes - Lied]
